X:1
T:Title
%%score { ( 1 4 ) | ( 2 3 ) }
L:1/8
M:3/4
K:D
V:1 treble nm="Grand Piano"
V:4 treble 
V:2 bass 
V:3 bass 
V:1
 z2 z2[Q:1/4=88] DE | F3 F GF | B2 A2 [A,FA][DFA] | [EGA]3 E FG |[M:2/4] G2 F2 |[M:1/4] [EF][EF] | %6
[M:3/4] [DB]3 [DB] [Fc][CF] | [Fd]4 [Fd]>[DF] | E3 c cB |[M:2/4] [A,CA]4 | %10
[M:4/4] z4 [CG][CG] [DF]2 |[M:3/4] z2 z2 [CG][CG] |[M:1/4] [DF]2 | [DFA]2 | %14
[M:4/4] [DGB][DGB][DGB][DGB] [DBd]2 [DAc][DGB] | [GB]2 [FA]2 [FA]3 [FA] | %16
 [Ec][Ec][Ec][Ec] [Ec]2 Bc | d2 F2 G2 A2 | G4- [Gc]2 [Ge]2 |[M:3/4] [Fd]6 |] %20
V:2
 z2 z2 [D,F,][D,G,D] | [D,A,D]3 [D,A,D] [D,B,D][D,A,D] | [D,G,D]2 [D,F,D]2 D,D, | %3
 C,3 [G,A,C] [F,A,D][E,A,C] |[M:2/4] [D,B,D]2 [D,A,D]2 |[M:1/4] [C,^A,][C,A,] | %6
[M:3/4] [B,,B,]3 [B,,F,] [^A,,F,]A,, | [B,,B,]4 [B,,B,]>[B,,A,] | %8
 [E,^G,D]3 [E,G,E] [E,G,E][E,G,D] |[M:2/4] A,,4 |[M:4/4][K:treble] z2 A6[K:bass] | %11
[M:3/4][K:treble] z2[K:bass] A4- |[M:1/4] A2 | D,2 |[M:4/4] G,G,G,G, G,2 G,G, | %15
 [D,D]2 [D,D]2 [D,D]3 [D,A,] | [A,,A,][A,,A,][A,,A,][A,,A,] [A,,A,]2 [A,D][G,^A,E] | %17
 [F,B,D]2 [A,B,^D]2 [G,B,E]2 [F,=DF]2 | z4 A,2 [A,,A,]2 |[M:3/4] [D,A,]6 |] %20
V:3
 x6 | x6 | x6 | x6 |[M:2/4] x4 |[M:1/4] x2 |[M:3/4] x6 | x6 | x6 |[M:2/4] x4 | %10
[M:4/4][K:treble] BA z2[K:bass] A,,A,, D,2 |[M:3/4][K:treble] BA[K:bass] z2 A,,A,, |[M:1/4] D,2 | %13
 x2 |[M:4/4] x8 | x8 | x8 | x8 | E,6 z2 |[M:3/4] x6 |] %20
V:4
 x6 | x6 | x6 | x6 |[M:2/4] x4 |[M:1/4] x2 |[M:3/4] x6 | x6 | x6 |[M:2/4] x4 |[M:4/4] x8 | %11
[M:3/4] x6 |[M:1/4] x2 | x2 |[M:4/4] x8 | x8 | x8 | x8 | [DB]4 z4 |[M:3/4] x6 |] %20

